X:3
T:Humours of Glendart
R:jig
C:trad
M:6/8
L:1/8
Q:3/8=133
K:D
A |BAF ADD | FEF DFA | BAF ADD | FEE E2  A|
BAF ADD | FEF DFA | dcB AFE | FDD D2 :|
|:A |def d2B | ABA AFD | def d2f | efe edB |
def e2B | ABA ABc | dcB AFE| FDD D2 :|
